static/img/kroki/f5932d56e8ec82028252a6cc56bc425e.svg

<?xml version="1.0" encoding="us-ascii" standalone="no"?><svg xmlns="http://www.w3.org/2000/svg" xmlns:xlink="http://www.w3.org/1999/xlink" contentStyleType="text/css" height="252px" preserveAspectRatio="none" style="width:244px;height:252px;" version="1.1" viewBox="0 0 244 252" width="244px" zoomAndPan="magnify"><defs/><g><!--class gcp_forwarding_rule--><g id="elem_gcp_forwarding_rule"><rect codeLine="22" fill="#3D176E" height="39.7891" id="gcp_forwarding_rule" rx="2.5" ry="2.5" style="stroke:#000D19;stroke-width:0.5;" width="212" x="16" y="7"/><ellipse cx="31" cy="26.8945" fill="#ADD1B2" rx="11" ry="11" style="stroke:#181818;stroke-width:1.0;"/><path d="M33.9688,32.5352 Q33.3906,32.832 32.75,32.9727 Q32.1094,33.1289 31.4063,33.1289 Q28.9063,33.1289 27.5781,31.4883 Q26.2656,29.832 26.2656,26.707 Q26.2656,23.582 27.5781,21.9258 Q28.9063,20.2695 31.4063,20.2695 Q32.1094,20.2695 32.75,20.4258 Q33.4063,20.582 33.9688,20.8789 L33.9688,23.5977 Q33.3438,23.0195 32.75,22.7539 Q32.1563,22.4727 31.5313,22.4727 Q30.1875,22.4727 29.5,23.5508 Q28.8125,24.6133 28.8125,26.707 Q28.8125,28.8008 29.5,29.8789 Q30.1875,30.9414 31.5313,30.9414 Q32.1563,30.9414 32.75,30.6758 Q33.3438,30.3945 33.9688,29.8164 L33.9688,32.5352 Z " fill="#000000"/><text fill="#D9B8FF" font-family="Helvetica" font-size="17" lengthAdjust="spacing" textLength="170" x="50" y="32.7798">gcp_forwarding_rule</text></g><!--class gcp_target_http_proxy--><g id="elem_gcp_target_http_proxy"><rect codeLine="24" fill="#3D176E" height="39.7891" id="gcp_target_http_proxy" rx="2.5" ry="2.5" style="stroke:#000D19;stroke-width:0.5;" width="230" x="7" y="106.79"/><ellipse cx="22" cy="126.6845" fill="#ADD1B2" rx="11" ry="11" style="stroke:#181818;stroke-width:1.0;"/><path d="M24.9688,132.3252 Q24.3906,132.622 23.75,132.7627 Q23.1094,132.9189 22.4063,132.9189 Q19.9063,132.9189 18.5781,131.2783 Q17.2656,129.622 17.2656,126.497 Q17.2656,123.372 18.5781,121.7158 Q19.9063,120.0595 22.4063,120.0595 Q23.1094,120.0595 23.75,120.2158 Q24.4063,120.372 24.9688,120.6689 L24.9688,123.3877 Q24.3438,122.8095 23.75,122.5439 Q23.1563,122.2627 22.5313,122.2627 Q21.1875,122.2627 20.5,123.3408 Q19.8125,124.4033 19.8125,126.497 Q19.8125,128.5908 20.5,129.6689 Q21.1875,130.7314 22.5313,130.7314 Q23.1563,130.7314 23.75,130.4658 Q24.3438,130.1845 24.9688,129.6064 L24.9688,132.3252 Z " fill="#000000"/><text fill="#D9B8FF" font-family="Helvetica" font-size="17" lengthAdjust="spacing" textLength="188" x="41" y="132.5698">gcp_target_http_proxy</text></g><!--class gcp_url_map--><g id="elem_gcp_url_map"><rect codeLine="26" fill="#3D176E" height="39.7891" id="gcp_url_map" rx="2.5" ry="2.5" style="stroke:#000D19;stroke-width:0.5;" width="148" x="48" y="206.58"/><ellipse cx="63" cy="226.4745" fill="#ADD1B2" rx="11" ry="11" style="stroke:#181818;stroke-width:1.0;"/><path d="M65.9688,232.1152 Q65.3906,232.412 64.75,232.5527 Q64.1094,232.7089 63.4063,232.7089 Q60.9063,232.7089 59.5781,231.0683 Q58.2656,229.412 58.2656,226.287 Q58.2656,223.162 59.5781,221.5058 Q60.9063,219.8495 63.4063,219.8495 Q64.1094,219.8495 64.75,220.0058 Q65.4063,220.162 65.9688,220.4589 L65.9688,223.1777 Q65.3438,222.5995 64.75,222.3339 Q64.1563,222.0527 63.5313,222.0527 Q62.1875,222.0527 61.5,223.1308 Q60.8125,224.1933 60.8125,226.287 Q60.8125,228.3808 61.5,229.4589 Q62.1875,230.5214 63.5313,230.5214 Q64.1563,230.5214 64.75,230.2558 Q65.3438,229.9745 65.9688,229.3964 L65.9688,232.1152 Z " fill="#000000"/><text fill="#D9B8FF" font-family="Helvetica" font-size="17" lengthAdjust="spacing" textLength="106" x="82" y="232.3598">gcp_url_map</text></g><!--link gcp_forwarding_rule to gcp_target_http_proxy--><g id="link_gcp_forwarding_rule_gcp_target_http_proxy"><path codeLine="28" d="M122,47.22 C122,64.36 122,83.27 122,100.41 " fill="none" id="gcp_forwarding_rule-to-gcp_target_http_proxy" style="stroke:#1A83AF;stroke-width:2.0;"/><polygon fill="#1A83AF" points="122,106.41,126,97.41,122,101.41,118,97.41,122,106.41" style="stroke:#1A83AF;stroke-width:2.0;"/></g><!--link gcp_target_http_proxy to gcp_url_map--><g id="link_gcp_target_http_proxy_gcp_url_map"><path codeLine="29" d="M122,147.01 C122,164.15 122,183.06 122,200.2 " fill="none" id="gcp_target_http_proxy-to-gcp_url_map" style="stroke:#1A83AF;stroke-width:2.0;"/><polygon fill="#1A83AF" points="122,206.2,126,197.2,122,201.2,118,197.2,122,206.2" style="stroke:#1A83AF;stroke-width:2.0;"/></g><!--SRC=[XP11Jy9048Nl_8fDE9DG6mKk9fM4w8KOyMPCCtHdsmtjxcPsAgBnlsi1pTeMkCxxvhqtKsY90Yl7Er5XjKRo0x_HnW519H8YkvtRqf8OAWKgdhJ5XJLy4LX2XU8UopTadK6RU2vqjZ7elRWAf3l8DZdPsiY3FHCO_oEXuO2Qb-1zmanwNJC6PUHiFLMgJRPDXx6C9ZVOmIn9f2Co7ezbD6iZ5wFEtlr7hFG7YYXysj8oTcfs8lRKsPOD4PJi7Fghd-pu259gaulhOFPqw4G6wTzyLO2qsuPMKFemnZCIMjuvd7UkmjbKgaal_70ApfhFYJnpgRAq1MegfbINA3u7Nu7AG3boMZ2xr95ztxNqcigq0hUVzhcDNePHCesJnUlejjzmq1_JMJmcVGC0]--></g></svg>

<svg xmlns="http://www.w3.org/2000/svg" width="244" height="252" viewBox="0 0 244 252"><rect width="212" height="39.789" x="16" y="7" fill="#3D176E" rx="2.5" ry="2.5" style="stroke:#000d19;stroke-width:.5"/><circle cx="31" cy="26.895" r="11" fill="#ADD1B2" style="stroke:#181818;stroke-width:1"/><path d="M33.969 32.535q-.578.297-1.219.438-.64.156-1.344.156-2.5 0-3.828-1.64-1.312-1.657-1.312-4.782t1.312-4.781q1.328-1.656 3.828-1.656.703 0 1.344.156.656.156 1.219.453v2.719q-.625-.578-1.219-.844-.594-.281-1.219-.281-1.343 0-2.031 1.078-.687 1.062-.687 3.156t.687 3.172q.688 1.062 2.031 1.062.625 0 1.219-.265.594-.281 1.219-.86z"/><text x="50" y="32.78" fill="#D9B8FF" font-family="Helvetica" font-size="17" textLength="170">gcp_forwarding_rule</text><rect width="230" height="39.789" x="7" y="106.79" fill="#3D176E" rx="2.5" ry="2.5" style="stroke:#000d19;stroke-width:.5"/><circle cx="22" cy="126.684" r="11" fill="#ADD1B2" style="stroke:#181818;stroke-width:1"/><path d="M24.969 132.325q-.578.297-1.219.438-.64.156-1.344.156-2.5 0-3.828-1.64-1.312-1.657-1.312-4.782t1.312-4.781q1.328-1.656 3.828-1.656.703 0 1.344.156.656.156 1.219.453v2.719q-.625-.579-1.219-.844-.594-.281-1.219-.281-1.343 0-2.031 1.078-.687 1.062-.687 3.156t.687 3.172q.688 1.062 2.031 1.062.625 0 1.219-.265.594-.281 1.219-.86z"/><text x="41" y="132.57" fill="#D9B8FF" font-family="Helvetica" font-size="17" textLength="188">gcp_target_http_proxy</text><rect width="148" height="39.789" x="48" y="206.58" fill="#3D176E" rx="2.5" ry="2.5" style="stroke:#000d19;stroke-width:.5"/><circle cx="63" cy="226.475" r="11" fill="#ADD1B2" style="stroke:#181818;stroke-width:1"/><path d="M65.969 232.115q-.578.297-1.219.438-.64.156-1.344.156-2.5 0-3.828-1.64-1.312-1.657-1.312-4.782t1.312-4.781q1.328-1.656 3.828-1.656.703 0 1.344.156.656.156 1.219.453v2.719q-.625-.578-1.219-.844-.594-.281-1.219-.281-1.343 0-2.031 1.078-.687 1.062-.687 3.156t.687 3.172q.688 1.062 2.031 1.062.625 0 1.219-.265.594-.281 1.219-.86z"/><text x="82" y="232.36" fill="#D9B8FF" font-family="Helvetica" font-size="17" textLength="106">gcp_url_map</text><path fill="none" d="M122 47.22v53.19" style="stroke:#1a83af;stroke-width:2"/><path fill="#1A83AF" d="m122 106.41 4-9-4 4-4-4z" style="stroke:#1a83af;stroke-width:2"/><path fill="none" d="M122 147.01v53.19" style="stroke:#1a83af;stroke-width:2"/><path fill="#1A83AF" d="m122 206.2 4-9-4 4-4-4z" style="stroke:#1a83af;stroke-width:2"/></svg>
